X:55
%%score 1 2
%%pagewidth 8.5in
%%vocalfont Baskerville10Pro 12
T:Watkin's ale
M:6/8
L:1/8
K:D
V:1 clef-treble
V:2 clef-bass octave=-1
V:1 
[CGA]|[DFd]2c d2[DFA]|[DGB]2A B2[^DF]|[B,EG]2F [_B,G]2D|[CF]E2 D2 :||:
w: There was a maid, this o-ther day, And she would needs go forth to play;
w: And, as she walk'd, she sigh'd and said, I am a-fraid to die a maid.
V:2
A,|D,2z z2D|G2z z2B|E2z G,2z|[A,G]2z [DF]2 :||:
V:1
DFD F>GA|EGE G>AB|GBG B>cd & D3 D3|
w:When that be-heard a lad What talk this maiden* had, There-of he was full glad,
w:To say, fair maid, I pray, Whither* go you to play? Good sir, then did she say,
V:2
[FA]3 [DA]3|[GB]3 [FB]3|B3 G3|
V:1
e2d c3 & G3 E3:||:Ad2 c3 & D3x3|FB2 A3|DG2 (F>E)D|[K:clef=treble][B,E]2[A,C] [F,D]3:||
w:And~did not spare For I will without* fail, Maiden,* give* you Watkin's* Ale.
w:What~do you care? Watkin's ale, good Sir, quoth she, What is that?* I pray, tell me.
V:2
E3 A,3:||:F3 G2A & x3 E3|B3 E2F & D3 C3|G3 [A,C]2[B,D] & B,3x3|G,2A, D,3:||

